images/Services/Braine.svg

<svg width="95" height="101" viewBox="0 0 95 101"  xmlns="http://www.w3.org/2000/svg">
<path d="M92.0441 51.341C93.0461 48.838 95.3106 42.2001 92.5551 36.6435C91.0321 33.5599 88.2665 31.3773 84.3788 30.0957C85.5079 27.9602 86.0735 25.5722 86.0221 23.1575C86.0221 19.0226 84.8096 15.7387 82.4148 13.4059C80.0357 11.2514 76.9482 10.0438 73.7375 10.0119C73.4247 10.0246 73.1193 10.1103 72.8457 10.2622C71.3728 5.73679 67.475 -2.23187e-05 59.5892 -2.23187e-05C57.0684 -0.0342872 54.5904 0.652556 52.4474 1.97948C50.3045 3.3064 48.5861 5.21804 47.495 7.48888C46.4066 5.21807 44.6902 3.30611 42.5488 1.97902C40.4074 0.651925 37.9305 -0.0348148 35.4108 -2.23187e-05C27.5251 -2.23187e-05 23.6273 5.73679 22.1543 10.2321C21.8807 10.0803 21.5753 9.99454 21.2625 9.98184C18.0451 10.0233 14.9545 11.2415 12.5752 13.4059C10.1904 15.7387 9.01805 19.0226 9.01805 23.1575C8.96665 25.5722 9.53223 27.9602 10.6613 30.0957C6.72346 31.3773 4.00803 33.5599 2.44491 36.6435C-0.310605 42.2001 1.91384 48.838 2.94591 51.341C1.57803e-05 56.6373 -0.731447 61.6132 0.701419 66.1286C2.42487 71.585 6.88378 74.7288 9.01805 75.9702C9.22847 80.786 10.7615 84.4603 13.5672 86.9032C15.9105 88.8246 18.8425 89.8848 21.8738 89.9068C23.016 94.5023 26.7736 100.92 35.2605 100.92C37.8057 100.965 40.3107 100.282 42.4802 98.952C44.6497 97.6216 46.3932 95.699 47.505 93.411C48.6195 95.699 50.365 97.6213 52.536 98.9516C54.707 100.282 57.2132 100.965 59.7595 100.92C68.2365 100.92 72.004 94.4722 73.1463 89.9068C76.1771 89.8824 79.1083 88.8225 81.4529 86.9032C84.2585 84.4603 85.7816 80.786 86.002 75.9702C88.1263 74.7288 92.5752 71.585 94.3086 66.1286C95.7215 61.6132 94.97 56.6373 92.0441 51.341ZM45.3006 87.7442C45.1002 88.9156 43.4369 96.9952 35.2806 96.9952C26.7635 96.9952 25.5812 88.0546 25.5311 87.6741L25.2906 85.6718L23.2866 85.9321C23.2866 85.9321 19.1183 86.4327 16.2024 83.8696C14.0281 82.0074 13.0261 78.9438 13.0261 74.7488V73.4573L11.8437 72.9266C11.8437 72.9266 6.28258 70.3636 4.55913 64.9171C3.36675 61.2828 4.17837 57.0678 6.91384 52.4723L7.46495 51.5312L7.01404 50.5601C7.01404 50.49 3.55713 43.4616 6.07216 38.4056C7.27457 35.9927 9.74951 34.3308 13.4169 33.4597C15.3308 35.0264 17.6084 36.0868 20.0401 36.5434C19.2289 38.8856 18.9617 41.3814 19.2585 43.8421C19.4991 45.5672 20.0382 47.2374 20.8517 48.7779C19.0352 51.1914 18.1719 54.1889 18.4269 57.1979C19.0782 61.9536 23.2565 64.7469 23.4369 64.8671C23.7623 65.0771 24.1417 65.1884 24.5291 65.1874C24.8608 65.1874 25.1874 65.105 25.4795 64.9478C25.7715 64.7905 26.0199 64.5632 26.2024 64.2864C26.4947 63.8429 26.5987 63.3016 26.4916 62.7815C26.3845 62.2615 26.075 61.8052 25.6313 61.5131C25.6313 61.5131 22.7956 59.5808 22.4048 56.6573C22.269 55.1749 22.5907 53.6865 23.3267 52.3922C24.4213 53.6875 25.6734 54.8411 27.0541 55.8263C27.3795 56.0363 27.7589 56.1476 28.1463 56.1467C28.5753 56.1455 28.9926 56.0068 29.3368 55.751C29.6811 55.4951 29.934 55.1357 30.0585 54.7255C30.183 54.3153 30.1725 53.8759 30.0285 53.4722C29.8845 53.0684 29.6146 52.7214 29.2585 52.4823C29.1984 52.4823 23.9379 48.8881 23.1764 43.3014C22.4148 37.7148 26.5231 32.6688 26.5932 32.5787C26.8102 32.3882 26.9834 32.153 27.1009 31.8894C27.2184 31.6257 27.2775 31.3398 27.2742 31.0512C27.2708 30.7626 27.205 30.4782 27.0813 30.2174C26.9577 29.9565 26.7791 29.7255 26.5577 29.5401C26.3363 29.3547 26.0775 29.2193 25.7989 29.1431C25.5202 29.067 25.2284 29.052 24.9435 29.099C24.6585 29.1461 24.387 29.2542 24.1478 29.4158C23.9085 29.5775 23.707 29.7889 23.5571 30.0357C22.8722 30.8987 22.259 31.8162 21.7235 32.7789C19.4189 32.5186 12.986 31.117 12.986 23.1775C12.986 20.1739 13.7776 17.8612 15.3507 16.3194C16.9537 14.8817 19.0189 14.0649 21.1724 14.0166C21.2756 14.027 21.3797 14.027 21.483 14.0166V18.7022C21.483 19.2333 21.6941 19.7426 22.0699 20.1181C22.4458 20.4936 22.9555 20.7046 23.487 20.7046C24.0185 20.7046 24.5282 20.4936 24.904 20.1181C25.2799 19.7426 25.491 19.2333 25.491 18.7022V13.2557C25.7215 12.0943 27.4349 4.00474 35.4108 4.00474C43.3868 4.00474 45.1002 12.1144 45.3006 13.2557V87.7442ZM90.481 64.8871C88.7876 70.3035 83.2365 72.8966 83.1864 72.8966L82.014 73.4272V74.7188C82.014 78.9137 80.9419 81.9774 78.8377 83.8296C76.8274 85.39 74.2982 86.1274 71.7635 85.892L69.7595 85.6117L69.509 87.6141C69.509 87.9945 68.2866 96.9352 59.7696 96.9352C51.6333 96.9352 49.9199 88.8255 49.7495 87.6842V13.2557C49.8998 12.0943 51.6132 4.00474 59.5892 4.00474C67.5651 4.00474 69.2786 12.1144 69.479 13.2557V18.6421C69.479 19.1732 69.6901 19.6825 70.0659 20.058C70.4418 20.4335 70.9515 20.6445 71.483 20.6445C72.0145 20.6445 72.5242 20.4335 72.9 20.058C73.2759 19.6825 73.487 19.1732 73.487 18.6421V14.0166C73.6003 14.0266 73.7143 14.0266 73.8277 14.0166C75.9666 14.0742 78.017 14.8823 79.6193 16.2993C81.2024 17.8512 82.014 20.1639 82.014 23.1875C82.014 31.127 75.5712 32.5386 73.2766 32.7889C72.7415 31.8227 72.1283 30.9019 71.4429 30.0357C71.2781 29.8228 71.072 29.6453 70.837 29.5138C70.602 29.3823 70.3429 29.2994 70.0751 29.2702C69.8074 29.2411 69.5365 29.2661 69.2786 29.3439C69.0207 29.4217 68.7812 29.5506 68.5744 29.723C68.3675 29.8953 68.1975 30.1076 68.0746 30.3471C67.9517 30.5865 67.8783 30.8483 67.859 31.1168C67.8396 31.3852 67.8746 31.6548 67.9618 31.9094C68.0491 32.164 68.1868 32.3985 68.3668 32.5987C68.3668 32.6488 72.5451 37.6647 71.7736 43.3215C71.002 48.9782 65.7615 52.4623 65.7014 52.4923C65.2633 52.7842 64.9577 53.2367 64.8508 53.752C64.744 54.2672 64.8443 54.8038 65.1303 55.2456C65.3128 55.5225 65.5612 55.7497 65.8532 55.907C66.1453 56.0643 66.4718 56.1466 66.8036 56.1467C67.1944 56.1496 67.5776 56.0382 67.9058 55.8263C69.3018 54.8415 70.5706 53.688 71.6834 52.3922C72.4146 53.6883 72.7359 55.1752 72.6052 56.6573C72.2044 59.5808 69.3988 61.5031 69.3788 61.5131C68.9336 61.8038 68.6223 62.2594 68.5134 62.7795C68.4044 63.2995 68.5066 63.8416 68.7976 64.2864C69.0886 64.7311 69.5445 65.0422 70.065 65.1511C70.5855 65.26 71.128 65.1578 71.5732 64.8671C71.7535 64.7469 75.9319 61.9536 76.5832 57.1979C76.8353 54.1876 75.9684 51.19 74.1483 48.7779C74.9689 47.2396 75.5117 45.5687 75.7515 43.8421C76.0505 41.3807 75.7797 38.8836 74.9599 36.5434C77.4 36.0942 79.6859 35.0332 81.6032 33.4597C85.2706 34.3308 87.7555 35.9927 88.9579 38.4056C91.473 43.4116 88.0461 50.49 88.016 50.5601L87.5251 51.5612L88.0762 52.5024C90.8116 57.0678 91.6233 61.2528 90.481 64.8871Z" />
</svg>

<?xml-stylesheet type="text/css" href="./css/style.css"?>

<?xml-stylesheet type="text/css" href="/css/style.min.css"?><svg viewBox="0 0 95 101" xmlns="http://www.w3.org/2000/svg"><path d="M92.044 51.341c1.002-2.503 3.267-9.14.511-14.697-1.523-3.084-4.289-5.267-8.176-6.548a14.197 14.197 0 001.643-6.939c0-4.134-1.212-7.418-3.607-9.751a13.121 13.121 0 00-8.678-3.394 2.005 2.005 0 00-.891.25C71.373 5.737 67.475 0 59.589 0a13.225 13.225 0 00-12.094 7.489A13.204 13.204 0 0035.411 0c-7.886 0-11.784 5.737-13.257 10.232a2.006 2.006 0 00-.892-.25 13.162 13.162 0 00-8.687 3.424c-2.385 2.333-3.557 5.617-3.557 9.751a14.198 14.198 0 001.643 6.939c-3.938 1.281-6.653 3.464-8.216 6.548-2.756 5.556-.531 12.194.5 14.697C0 56.637-.73 61.613.702 66.129c1.724 5.456 6.183 8.6 8.317 9.841.21 4.816 1.743 8.49 4.55 10.933a13.253 13.253 0 008.306 3.004c1.142 4.595 4.9 11.013 13.387 11.013 2.545.045 5.05-.638 7.22-1.968a13.34 13.34 0 005.024-5.541 13.373 13.373 0 0012.255 7.509c8.477 0 12.244-6.448 13.386-11.013a13.283 13.283 0 008.307-3.004c2.805-2.443 4.329-6.117 4.549-10.933 2.124-1.241 6.573-4.385 8.307-9.841 1.413-4.516.661-9.492-2.265-14.788zM45.301 87.744c-.2 1.172-1.864 9.251-10.02 9.251-8.517 0-9.7-8.94-9.75-9.32l-.24-2.003-2.004.26s-4.169.5-7.085-2.062c-2.174-1.863-3.176-4.926-3.176-9.121v-1.292l-1.182-.53s-5.561-2.563-7.285-8.01c-1.192-3.634-.38-7.85 2.355-12.445l.551-.94-.451-.972c0-.07-3.457-7.098-.942-12.154 1.203-2.413 3.678-4.075 7.345-4.946a14.755 14.755 0 006.623 3.083 16.327 16.327 0 00-.781 7.3 15.01 15.01 0 001.593 4.935 12.278 12.278 0 00-2.425 8.42c.651 4.756 4.83 7.549 5.01 7.67a2.005 2.005 0 002.043.08 2.005 2.005 0 001.012-2.166 2.002 2.002 0 00-.86-1.269s-2.836-1.932-3.227-4.856a7.284 7.284 0 01.922-4.265 20.373 20.373 0 003.727 3.434 2.006 2.006 0 003.005-1.1 2 2 0 00-.8-2.244c-.06 0-5.321-3.594-6.083-9.18-.761-5.587 3.347-10.633 3.417-10.723a2.002 2.002 0 00-2.445-3.163c-.24.162-.441.373-.59.62a20.239 20.239 0 00-1.834 2.743c-2.305-.26-8.738-1.662-8.738-9.602 0-3.003.792-5.316 2.365-6.858a9.022 9.022 0 015.821-2.302c.104.01.208.01.311 0v4.685a2.002 2.002 0 002.004 2.003 2.005 2.005 0 002.004-2.003v-5.446c.23-1.162 1.944-9.251 9.92-9.251s9.69 8.11 9.89 9.25v74.49zm45.18-22.857c-1.693 5.416-7.244 8.01-7.295 8.01l-1.172.53v1.292c0 4.195-1.072 7.258-3.176 9.11a10.025 10.025 0 01-7.075 2.063l-2.004-.28-.25 2.002c0 .38-1.222 9.321-9.74 9.321-8.136 0-9.85-8.11-10.02-9.25v-74.43c.15-1.16 1.864-9.25 9.84-9.25s9.69 8.11 9.89 9.25v5.387a2.002 2.002 0 002.004 2.003 2.005 2.005 0 002.004-2.003v-4.625c.113.01.227.01.34 0a9.113 9.113 0 015.792 2.282c1.583 1.552 2.395 3.865 2.395 6.889 0 7.939-6.443 9.35-8.737 9.6a20.239 20.239 0 00-1.834-2.752 2.003 2.003 0 10-3.076 2.563c0 .05 4.178 5.066 3.407 10.723-.772 5.656-6.013 9.14-6.073 9.17a2.003 2.003 0 00-.57 2.754 2.004 2.004 0 001.673.9c.39.004.774-.108 1.102-.32a20.733 20.733 0 003.777-3.434 7.364 7.364 0 01.922 4.265c-.4 2.924-3.206 4.846-3.226 4.856a2.003 2.003 0 00.686 3.638c.52.109 1.063.007 1.508-.284.18-.12 4.359-2.913 5.01-7.67a12.278 12.278 0 00-2.435-8.42 14.818 14.818 0 001.603-4.935 16.176 16.176 0 00-.791-7.299 14.654 14.654 0 006.643-3.083c3.668.87 6.153 2.533 7.355 4.946 2.515 5.006-.912 12.084-.942 12.154l-.49 1.001.55.941c2.736 4.566 3.547 8.75 2.405 12.385z" fill="#87AD3B"/></svg>
